src/lib/packages/icons/src/assets/line/link-horizontal-alt.svg

<svg xmlns="http://www.w3.org/2000/svg" width="24" height="24" fill="none"><path fill="currentColor" d="M10 16.75H7a4.754 4.754 0 0 1-3.356-1.386A4.765 4.765 0 0 1 2.25 12 4.756 4.756 0 0 1 7 7.25h1a.75.75 0 0 1 0 1.5H7A3.254 3.254 0 0 0 3.75 12c0 .862.34 1.679.954 2.303A3.26 3.26 0 0 0 7 15.25h3A3.254 3.254 0 0 0 13.25 12a.75.75 0 0 1 1.5 0A4.756 4.756 0 0 1 10 16.75ZM21.75 12c0-1.258-.492-2.45-1.394-3.364A4.756 4.756 0 0 0 17 7.25h-3A4.756 4.756 0 0 0 9.25 12a.75.75 0 0 0 1.5 0A3.254 3.254 0 0 1 14 8.75h3c.861 0 1.68.339 2.296.947.615.624.954 1.442.954 2.303A3.254 3.254 0 0 1 17 15.25h-1a.75.75 0 0 0 0 1.5h1A4.756 4.756 0 0 0 21.75 12Z"/></svg>

<svg width="24" height="24" viewBox="0 0 24 24" fill="none" xmlns="http://www.w3.org/2000/svg">
<path d="M10 16.75H7C5.742 16.75 4.55004 16.258 3.64404 15.364C2.74304 14.45 2.25 13.258 2.25 12C2.25 9.381 4.381 7.25 7 7.25H8C8.414 7.25 8.75 7.586 8.75 8C8.75 8.414 8.414 8.75 8 8.75H7C5.208 8.75 3.75 10.208 3.75 12C3.75 12.862 4.0891 13.679 4.7041 14.303C5.3201 14.911 6.139 15.25 7 15.25H10C11.792 15.25 13.25 13.792 13.25 12C13.25 11.586 13.586 11.25 14 11.25C14.414 11.25 14.75 11.586 14.75 12C14.75 14.619 12.619 16.75 10 16.75ZM21.75 12C21.75 10.742 21.258 9.54999 20.356 8.63599C19.45 7.74199 18.257 7.25 17 7.25H14C11.381 7.25 9.25 9.381 9.25 12C9.25 12.414 9.586 12.75 10 12.75C10.414 12.75 10.75 12.414 10.75 12C10.75 10.208 12.208 8.75 14 8.75H17C17.861 8.75 18.6799 9.08899 19.2959 9.69699C19.9109 10.321 20.25 11.139 20.25 12C20.25 13.792 18.792 15.25 17 15.25H16C15.586 15.25 15.25 15.586 15.25 16C15.25 16.414 15.586 16.75 16 16.75H17C19.619 16.75 21.75 14.619 21.75 12Z" fill="currentColor"/>
</svg>
